-----BEGIN PGP PUBLIC KEY BLOCK-----

mQENBFaTa+4BCACxyJ3oTNhz5oJOCu70mrxFqj/uqDfNm2K8Prr0CQ2I7yXijfTZ
GVIjURIzp+Zhmc1LhZYlNwwI9ivFFvLoS9kH2rkx9EaIuP3ljtxQskRFrX4BepR9
/EvIoi7tUuOEqCy2pRy/y7Rc7s3Qbu/sPQ17wvRQqzTKsvoh9wxat6990l1MFjlF
/xBOD4Qb9LJGzc6Y8SLEEs7l/vAesL0viOME1hVQk+fG0KFosI32aeNnnLHPZbLi
Z2YETvI5nROMhleSDusqUpVxXzkIBcVLbCyeJooRsZAhJ6AB8qvhOXx2xTBBgMpw
aE/DHF6ZkvmsVB6lRNqMLjGeLOkmqx1vjZynABEBAAG0IkJodXNoYW4gU2hhaCAo
a2RlKSA8YnNoYWhAa2RlLm9yZz6JATcEEwEIACEFAld3rtICGwMFCwkIBwIGFQgJ
CgsCBBYCAwECHgECF4AACgkQ/geEEX+84R1tfwf9GSACMGPFi9AArBwFhaYUKB4B
JqNgCSRvQJ7gtG6YAaW+o919AtmpO+nq0JtvrSXQVLbJ1jxEMXsNJnvZByiACm91
u8z/LzMoI5C6RK13eGTTBr57LAE8lXI0xhkiSwQUAPQWJXumE1evoHExHrAi+z6a
La6QXwyqmP5amwked6S6R9GxGI2c+UPm9sVh4Lb1L/pEzeCdt7/1R1baAQ+weI1c
Vbfd4b9Qc5r/baq41CesZKz29UgorqiLyBXlWLUCClAXB/nrbAh7hR4pDhSsIExS
Tp8gBnBTpKc2NAzGZTxopcvi/SOAxkdFlfkBewXuvHOxg0S8s8z7Owaeckbj7bQy
Qmh1c2hhbiBTaGFoIChteWtvbGFiIGFkZHJlc3MpIDxic2hhaEBteWtvbGFiLmNv
bT6JAU4EEwEIADgWIQQKrHdbtkN6jZr3o6z+B4QRf7zhHQUCW4T3zwIbAwULCQgH
AgYVCgkICwIEFgIDAQIeAQIXgAAKCRD+B4QRf7zhHa3OB/0QBQ8tc6WukC9ubRd5
A1vEe5tSWvzJEB25mc+YfXj3eha9ZhGWSNF7iHQ278aKgyn4HS/Mve+A+w7ZQWtG
K1sjxC1E7qn1U1Xx5BoadbvEfN8E9Vun0NPLa/FXtz6gTnGPOkgJ6NjQuEy6aKT9
lGbHuxXBLPfGfEQrT16ny0+Nc3Is1cSIWsmyF59vZTH9Z8uJu2C04lyMkE6huTdb
Lm6YAFzN3U2B/96ZG/9GWr1EImuVg9z7vUIlENbG/ARHbdGdTqwKzjLPMhMRmSQt
9pjOA0K2/o9y7t6JgQiMC1DPl21INZHmYES9dlfyEiaLjVYkVunL/tJHXO9RIoqW
x5nPtCBCaHVzaGFuIFNoYWggPGJodXNoOTRAZ21haWwuY29tPokBNwQTAQgAIQUC
VpNr7gIbAwULCQgHAgYVCAkKCwIEFgIDAQIeAQIXgAAKCRD+B4QRf7zhHcJCCACZ
I9Yv5YGLOPlYhxJnY7HWMI2cJxnvcrziztlJ3zearp+CLg7j8mqhkIwJTZjMy6js
Kz+HVQ9eQBGB/9s8WLtcq8TK1B3SU5JRK5ufbt516td9S6FSjkU2d6LJgFf1GLVG
M4+/mgTdyZhYzfhe+X87q5xEnbyzxn0a5Ybo0KFtsd2QMiG6ULNZaIy0hBcbvMZZ
F2NypEi0ZVKMRoJ3JYQvqL//mfROIz48+J2YU7gDnpuUsIesh7ow9b98CJYHNalP
FNSmfrpcLcAwFZ0tP/lkI15rWpdj4j9MHAiIGXWYoU3WP3jmPbXqadfUgcFJHTXK
szGwGcn4fHeLfY7GER+OuQENBFor3b0BCACzoDyH2gsTKGGDkR3yybCeerjhj+mH
ISDX8u8Blb7TT752wuF6eqvFD0oo6LpI2n8OWT2RbgWexN0KuFcf3kU3B6GKuNAm
ocRQ5lL7em5wwhZbDFzVwkjlLZ4Xo+XJTIwrZu2sLZDg9uSUK8twJpsQHkL/NOyw
XImMvv4nUZWr9bEMlDoHIYkv57EkF/pZLY8FypLO0I/9zqZbvg/I04oNqhnTVK3n
ZG4GYbFbHb4rZribgatyGsNopV+JevYPYqMQYu+PNW5mi1dT9gbR7KlKZhO8KcOC
XUPjUwYgD7jPjqqNvJlk1aKL+Uh/UBznr4FSSgnzO0XwY/MxlSdx/w3LABEBAAGJ
ATYEGAEIACAWIQQKrHdbtkN6jZr3o6z+B4QRf7zhHQUCWivdvQIbIAAKCRD+B4QR
f7zhHd90CACFf1rob/ih2CpCs8MyWKhGRCkXhakpPdVvnrRw3+9pjwdyfiH6JDWA
koBJuEf+e9KfbiAQXHMSz8E72yVO7/VLb3NJBXLvbcTVjoHtFtOOqqrkaFiMBWcW
y8HEpfF8JYYra7dUwGT67CEccs18x3hPVUyAFkH7Z470RqfCn3Ql6C4JTJG+CkRe
uaczD3+dYT0kOe29lYZsGaIfWOG+RTOHICnaLoNgof4DxVk3dChlrkkbPMSp1LoJ
N19I9PPaaPNY9Q03DHswM/UGW0rNajNT4cZf0miRBMG/0j+j2hkvTD73zKbIbs8/
0reS1nrBgjiRzBunFiJv0ABSLle1liqYuQENBFor3YIBCAC65dX5iHSpg7pZBkuc
T5fQGK8+VFjW8fgHbMOAMFjSqtsh0+Xj+m9vBAuT9WjbJVmod+gaFuqcGRdkWnNX
1Aw6cR2usyjy6eb/TZ/tu4RnnpeSQpOl6WyXrdC7Sq7b8hKl/ELFEUsZl2P5UsDR
JaF7R5zCBH73Vm9woTVvJ/Mb36xtVjS/xZCr1l/HSFSj/Ql/v4UCJRYiCZLpce4K
f4NgFMesZwYR/4JTrj6V8fkJsbPjYAqqxjNnBhZXhFqvA0FUO4zpd2qUL2bhZxE6
izmrJXRdDmwT9IHK4c7VrllrMUU9uueqIG2DU85Czi5DDjBTZGwQz5sZQhE1MWgi
mMexABEBAAGJAmwEGAEIACAWIQQKrHdbtkN6jZr3o6z+B4QRf7zhHQUCWivdggIb
AgFACRD+B4QRf7zhHcB0IAQZAQgAHRYhBLPLNmVSVAvgbumtlxGWjESSjK78BQJa
K92CAAoJEBGWjESSjK78ZUkH/3TB1XkGxvndf9qLUd1JwTt0/5yWEONUSBTzvrTU
Xtye3N6j0QBKyjZgt2Rec0TgarxMdSlcuT88tOW6bnPY6s5htx+vNZTWQtGC4OBV
yKpzIj7h6/k/nByFOsutE5fu7IQarl9MdiLvESaiVEZcVQQByxZEbBLoM6rbywNJ
uGj4tEtfI8EVUTqVOZfOMhrDmnE+AxccY+Nva+4c/eFwVLfwKRsqAWCe+ULN4J5r
fLqtWzzrFVSL+XUL+0B1MUeTFtBDPKhs1Y4Xnm6OHXaJY48WqVotdIlxKBFvokG6
Y9LdfiDcMQ55Yso5eCpddZ1PP2f3bkbWz1nPkSpEY4+Dm1Q2mgf+IOFa2is9f3Km
5Ys+YnOr97/qXt3VhjmnUU/zx8b7fcsM7E/r2kKp8ihLiHfG0gG2rpk4Py95WFvg
ZdJfejX+scS6vXCPwl0gpOLItBxzRsT+qqRTXPbC08OekMyJKn4rRfO56us6RNHc
29uOrU3d4BPtyn27632Mg0F7gvfr4PNBl3BQa+LuiMw9Nja8ozpVlIcQoObDULgh
+n2hIRUCVCTYCyWV0sD/yG4DdXvnb4KixXPiQ7SD9+LUuqROyQV9FU7tjVluzk3i
pv/at1enhxgSYo178gj7L3GgLHKhsERkEQIscJl8h07awHie3vZj7T8bnZxbYbPb
KNs/QxpmnbkBDQRWk2vuAQgAvA+l8nsDh1/p03OJgUHy5q5jSbukV+5GP3MLwLLJ
HrzkzT84CSbZ1CUCNYgAViO1PPGn4wL1NcM2KwXxH0ON4dXD8OjTGOP3Jh3vGIpg
oJPHDWChktLDN/mCfITU0hsSiWu2N0Q8QyyvX0qhtcWulEXHLTU+e62ru8VLVRMR
aTdKhnk7TADiw6d+sGPo0mAaVWe/2f49Eg0H/UoVNBtjmTCrGb3B9SmnTlVuJE9u
yEhzexCW43TDwpmcrSfuUsYvTxR2Aq/50dagWP49KLiku9bkoc3LLM+VoJ5Jj/O3
77H6XwkCZeUpIj2r3XaHWaAQkUSsKkJ1e57NyRZoe1NvpQARAQABiQEfBBgBCAAJ
BQJWk2vuAhsMAAoJEP4HhBF/vOEdONIH/RviPwDNbm+1AITwED2duUnSGkx/ejFe
XJlrLnE5xlMtVw4fCNIWWhAf5JFhzq5mysqoYPzbYBKl7T/5KiV+a7k7fQDd00pc
SfiKwssApt95Eu8j0QA4MDbIaAn/xx91bo3HDeCnw4yLooy0mW3yGxunBqNm4Ks+
reKfTWmaH3EIRXz8AIH79yC9QzRamb1KIQz8v4+XlOyHQ48rS54RlGU30q84Vl5A
mcmykTltOc0nDEXebi92/op/2bvK4HhP5SxfJ5g+NmCdOfJ/u9i40ez+Q6q25WwI
S4kIPAgW6yBSaM0FMlA5088LBkRbkAMe268qbDkqln2HFRKl8YicHayZAQ0EUbX5
tAEIALen592L37nksW4o+pbRetCRBDYJF9dwzmWpvoHjFB7Auiux1ftJEOYvOl0N
n1sKmrEyyIVsH72XGWMc1PPH0EgQ73Dppi1WA+wbgv1nHAFdROWC0gBSg7LiVNCd
RHRAMWUlDHxzgLLzaG05IKJY7iJoS8xuj4EZ7yDh/b83S0k6ucBz/GWx0DrgZNYh
3g0HXYX5B5GBZY1Cz9b+P+TLLfv4vSO4PTpEwq2HS5Ew3fvARr0pwtqU4ERQROsi
Zl/HvjBqC3pYOcmSct/Rx6rN+iOTzamjQLjoEkC7j20t6FhgqCjQcpl8rsIPDnfL
1KOQjxxTyDjwDJTDxST8XIl5bVsAEQEAAbQ3RGF2aWQgRWRtdW5kc29uIChEYXZp
ZCBhdCBLREUpIDxkYXZpZGVkbXVuZHNvbkBrZGUub3JnPokBOAQTAQIAIgUCUbX5
tAIbAwYLCQgHAwIGFQgCCQoLBBYCAwECHgECF4AACgkQ9WdWBcdOAs8oPQf/QKeP
VszoxhXmcpcmEul3xqzY4cWWF21pTtAbdBwxWp20/et06nVGCOaRiwHGDCvG8NMv
PQv88f1RMJeNB5mA1HSEbyLLggEL1rLQ8N2Q2mOcegCJQxGy1wM4NRlB0sQ5cJs9
tEberQ6VJo68RMvtiRJjxzY3rKqZZom+52knRVU/IhZrbFPnclNeAAPibXDwxOEB
kFmkmLznadAIHIKxEL7dyh8DttB3rRcuIVaCaer6uWqvIyVa9SYyZq17tTU0LlSx
8fpOhd/9k1kb58wYT6e1iIdZEWva1kzJd9Q6uAewBUwATy//FW3BLl5UIB0zbUY0
bh3peIXtPfYYPOsRCbkBDQRRtfm0AQgAvS4uQ/EduD1ugi5V1qHLLoUE5xR/zGPe
qPwVQalGRxJKyjK8VMdlFNH7DBM9NpnPPNMVIhNEZW/u90rKX8D5IzD+eVRV8H3E
a+8KDM8Z6xST2WbFfYNFWmir0LJUjDRdclC02QLc7XITCzjO4PMd732x8O9ekDWK
R834eCfeguMIce1a5PJcYpdSKbNOgMypZ6e1WQ/WvMo+WKf1cnQoNP9rGusP0vmz
goKMd1YRDAbeaIkPFCeWwAUMGPsGzwNlkT7F3PH+XyoEo7GZcP2iEWnirTBdVXhA
kwe2OG+Eh30Q33rl2uViYx+6wwLBq+SUE5Z1HUx1JIEhg9Ll4hKaPQARAQABiQEf
BBgBAgAJBQJRtfm0AhsMAAoJEPVnVgXHTgLPgLMIAKk3WXf1jOieKrGVpptw6sRs
WOEpeUVc+blML6ePaI7wGJ4kuiW1NxAvWdvEEdzEyTFRQkBUoFKaWHcE+NgmFcE1
G9b+BqaNo74uhK1cj7S87ho6GRHS0uoD3/NAUz25U+7oidLQ33ygxotrPLGde6oR
qcI3vJZ8ocrGaQqJUwHVExoT7ZNhAEo98W6SJfa+/eoHJV7PypgZr3zzTHp+SuoV
s+gnagNcQYYPRbt+S/WllX/VcK5dX+orPeG0PcBAO4uKOq3qwz057tguy/mWpNvk
MrqDY33G+FPPrhn6P1t/jh9sxF6De5vcZeV/2sVPx4Nh/JgsmBYn/WFhnGKa2H2Z
Ag0EYVWbOQEQAL2uhsuPhkyNn8SEduJimvb+L+5bfxPqo/mbCkAZ6Vrf81aGPOnZ
rqt+4tNvo61eSiZwyLDNVcGbZUKgXnPt/bdznIKTio8WdM1xjGaqXUxpGsjjH1lv
+JXqOK38WSI08Jz/z2S99ZUzLAJv/S44ZFvPD2UY1Af7ZsmQcsNLfw9+sAGKQ4p2
LvlTHWk6XrgZWcrGp9dIHrd314O0sQsRuO9s9F1klK4VMUuVH65kqK+wLHss+GlL
8Q/JbVKdX0nLxkCAwfPRVmeRmcLZbXm4zwU/oBFS3GVgym1S5Tv2IRFgp3THAIcl
PgYjc8UyMAwv9cfOTPNcmCRmbVgyPLZ00cpzTuCUDp5+qtvzYHOpanqZ+5SdgGWc
7njINTBR4Na5G9knA3G/SPfV4ANiVmg+SQ9fpRaprJ4Bw8QE+h+JqzFTDmYh8//c
cCwlwON/c6Pm1jITsQvKmpNY+9LZ8FgJbC+Kl/Gw5CYD3G+UJjYwaEC1M1x4lxvf
bhs4um7ADYZaazIfD5zdu8sPs8Np4tnuSOq7U0GqDAMRKA7uw+tYozgZpyWCv2wC
29+v++WQdEJNmGmW5m5b8ki6Kmtz079mKBP0D2XFtB7UKbRU80eT7MOX/A9O/skQ
Lk4Y8BjsbqzttAvGnsLsW6U5lyMpaacQFZVXU7uJ57xhlDm9lOZM0jZVABEBAAG0
JkpvbmF0aGFuIEVzay1SaWRkZWxsIDxqckBqcmlkZGVsbC5vcmc+iQJOBBMBCgA4
FiEE4KPrIC+OV1KOE+cv11dEg7tXsY0FAmFVmzkCGwMFCwkIBwIGFQoJCAsCBBYC
AwECHgECF4AACgkQ11dEg7tXsY1xkQ/9GGyd5XfSVCDhCPsl3+4WGGu8wdNq3DwX
XxsxavuD+xtDTPtx7BPxgz7Zbb0ULiTeBkcDwvB+ryDksAzwZu9qCCfsutO+CUuL
6Ff9TiJTsuirIfW2nJkQ8PTyqpSSMRHxt8t+UESUhKMZvvF4kxuFL7XS+3xBBCVb
sypFBCjRtgHp+guuZbdq/NnP+ZvYgvdEBaCjBAn2vEb6hb7eUUKNIa/Fdqr8EZwN
qOSr1R4MYJHdEc6OQNURfrG5LsPvorRjfZuBhuwPMeQMdGbm9HQtfFApQLn05ASg
0sJ050WVfibUubaxRr+9eeOuk48Am+KP4vAO39IHUbKAn+qK076uJO2BJubJNjzj
Ffh0CHg16eaTUkXemF/BreeYnNW7uiIK8pOxWt/yCclQ+rwyyBS5aBD2q7RRdZFs
WedyRWyPrEEa48iCuUaTZX1FOqJF4lOxT9F3KlXM7quyETItZLRMLPKAetmTchLi
k5FS3qK1SUlIJ29lENrcCE9SRC3ciyjRLyhlbM/7OVcy9gW8XWmC3OL1w+puAkni
5Anzny6rDSPCMUzcJjKtWstY1jaQ8g9Vt5MfoGHqdCnhDQpecO5txRtul3bEweW0
cQjqCZr0BOFr6784yNiBemQA/xQQJwXUIP7AgLhziltIWc6aFFqL3YyNsyRv3TmR
jNT/VLepn2e5Ag0EYVWbOQEQAJTX1HryDpOeuelQLLDAJNVkmRjYlWlKVAZheN2A
LrUq3S+MwIDux1yRKp8TSpMiPEeYMHvwXZylJ8OYoSB3wZh3Ey5SpNZLtRZEPdFu
8NQFEsb8oyKD7ocZ743PE6/6/AJye8zcsBk/+T9QxtUA5hAUBG+bXfpQ5pOerUG+
ycMAyg75RLvY5ZVfNNZyBskugurQcp8KsDR8MqeeHQc8ZD7nyo9+ha5q1nCD47rS
ggTZ3moutLEA+5QmNpYPXKU2VJu6dA1uAeYzV4orfpFQ05zV8MY9ZDUTT55m5ljk
d+ccUOWJnmuwmwquo4WEA1xG7sGk5YZVIGqaz42OQJQ4bBTuKv2OAgEPF2O7fy6u
LcEINJg+sOuy4U9Ishpv8G5oRxvMuyAACigxswcXLZYGrDVa0lq0aGD6dqgmOFrF
t5xo6BTXjQ5uepB1F3Y+kuYhEDN7mgW+P1Mvo0S+SSFag5bcxQdtX+yCKW83im4v
4n6WKCjBvCGfL7J+TRe1dmT2dTT96f1RhQW/JCDGL2X4oTrDKXU3vhEe8Qu086nr
SU4wIH8IAX6rkPdcjiD0s2/eTIIGnjQWrleJVww4xqY3Gru9zz7YhpLNGLJJ5Dr2
F12Ep/tGbvHhmNbdtXEW7QMBCLgJICzPcD7+DTPgYOtkOpnI3LRXFxdMT1lmuKE2
+hO9ABEBAAGJAjYEGAEKACAWIQTgo+sgL45XUo4T5y/XV0SDu1exjQUCYVWbOQIb
DAAKCRDXV0SDu1exjQRlEACH0xskIF1tVrmHabcABtgb4Exmw55IRJAK7LRszvPt
ZKF9Jp94YT8qEm4Apm0EeiksDVUIXviHe83DAPEAb7ypvMbG67NX5PHXy/KJjd1a
V/fQvXKmrp87nd+5lKA8HSDOMKgNwl5IODsV1NyozOO6bKzdOG84FMcHWDDNBa55
nwJLEq93fgnsJDttSnGMO+BmkjeBt1bfsXXUpSAsX4e0PVs71LNOz2t2kakV6xKO
gXamXYLSmXOUHjTGBv4JbgYvtPbnfHXEp6MJ5qzYTgiaYPY4246qntDfXHjnpxCv
9aol7sDiUgNFXNrb813SoYEIQguYyUgwP5ill1C/5Y793oa/rnC3g765+O50pwiw
ivLPttULbzM6IDCZWacOE6QBqQCQglVMxr3HIVW2q4F+P3P2aDpbssvD3q0BVdPr
IqRBEeRDb/fq4GCyuXbP6T6YVabghLZEaAN9O2urieX8sbDJv1PQwO4VnwVQ9Q08
rbxnWJhZvS1N1rlBzloKtplwWvRpHg9hOgG+3ma+tX5Ma991XO9r8mNxHC0WfChF
SpKUFImoLhapmaQHveLXoyWO9PT7i/a6ma53gkrDYpOjCFmNsYuUGCsAzG4Ng2/3
nc+ghsoq4P27B0+QKuS4vVdCwENaweBb0NDirRs5uvRkHElZTMuP/kTDWIUvPk6h
Lg==
=b8cz
-----END PGP PUBLIC KEY BLOCK-----
